;FLAVOR:RepRap
;TIME:2776
;Generated with Cura_SteamEngine 2.3.1
M190 S60
M104 S215
M109 S215
G21 ;metric values
G90 ;absolute positioning
G92 E0 ;zero the extruded length
M107 ;start with the fan off
G1 X90 Y200 F6000 ;go to the middle of the front
G1 Z0.05 ;close to the bed
G1 Z0.3 ;lift Z

;LAYER_COUNT:31
;LAYER:0
M107
G1 F1500 E-6.5
G0 F1800 X34.557 Y45.661 Z.3
;TYPE:SKIRT
G1 F1500 E0
G1 F1800 X34.95 Y45.381 E0.02115
G1 X37.656 Y43.714 E0.16044
G1 X43.04 Y40.021 E0.44659
G1 X43.503 Y39.752 E0.47006
G1 X44.002 Y39.554 E0.49359
G1 X44.524 Y39.433 E0.51707
G1 X45.069 Y39.39 E0.54103
G1 X50.217 Y39.38 E0.76666
G1 X50.48 Y39.389 E0.77819
G1 X55.147 Y39.722 E0.98325
G1 X60.653 Y39.923 E1.22473
G1 X66.098 Y39.812 E1.46342
G1 X71.66 Y39.386 E1.7079
G1 X71.93 Y39.375 E1.71975
G1 X77.792 Y39.367 E1.97666
G1 X78.327 Y39.406 E2.00017
G1 X78.85 Y39.524 E2.02367
G1 X79.35 Y39.719 E2.04719
G1 X79.883 Y40.033 E2.07431
G1 X82.545 Y41.925 E2.21744
G1 X88.017 Y45.427 E2.50218
G1 X88.417 Y45.724 E2.52401
G1 X89.124 Y46.329 E2.56479
G1 X89.504 Y46.707 E2.58829
G1 X89.766 Y47.048 E2.60713
G1 X90.231 Y47.736 E2.64353
G1 X90.497 Y48.202 E2.66704
G1 X90.661 Y48.608 E2.68623
G1 X91.071 Y49.831 E2.74277
G1 X91.203 Y50.35 E2.76624
G1 X91.248 Y50.711 E2.78218
G1 X91.353 Y52.14 E2.84498
G1 X91.363 Y52.406 E2.85665
G1 X91.348 Y83.057 E4.20001
G1 X91.304 Y83.616 E4.22459
G1 X91.071 Y85.094 E4.29016
G1 X90.948 Y85.616 E4.31367
G1 X90.78 Y86.05 E4.33406
G1 X90.345 Y86.986 E4.3793
G1 X90.083 Y87.454 E4.40281
G1 X89.9 Y87.707 E4.41649
G1 X89.496 Y88.216 E4.44497
G1 X89.008 Y88.721 E4.47575
G1 X88.528 Y89.129 E4.50336
G1 X88.128 Y89.423 E4.52512
G1 X83.169 Y92.578 E4.78272
G1 X79.875 Y94.902 E4.9594
G1 X79.415 Y95.178 E4.98291
G1 X78.92 Y95.382 E5.00638
G1 X78.399 Y95.511 E5.0299
G1 X77.801 Y95.561 E5.0562
G1 X72.689 Y95.563 E5.28025
G1 X72.453 Y95.555 E5.2906
G1 X65.137 Y95.077 E5.61193
G1 X59.667 Y95.019 E5.85168
G1 X54.204 Y95.27 E6.09136
G1 X51.26 Y95.53 E6.22089
G1 X50.938 Y95.544 E6.23502
G1 X45.06 Y95.535 E6.49264
G1 X44.526 Y95.494 E6.51611
G1 X44.003 Y95.374 E6.53963
G1 X43.504 Y95.178 E6.56312
G1 X42.97 Y94.862 E6.59032
G1 X40.875 Y93.362 E6.70324
G1 X34.993 Y89.575 E7.00985
G1 X34.646 Y89.321 E7.0287
G1 X33.809 Y88.628 E7.07632
G1 X33.423 Y88.256 E7.09982
G1 X33.188 Y87.965 E7.11621
G1 X32.832 Y87.473 E7.14283
G1 X32.551 Y87.017 E7.1663
G1 X32.415 Y86.72 E7.18062
G1 X31.977 Y85.644 E7.23153
G1 X31.812 Y85.134 E7.25503
G1 X31.752 Y84.83 E7.26861
G1 X31.606 Y83.873 E7.31104
G1 X31.565 Y83.328 E7.33499
G1 X31.583 Y51.382 E8.73511
G1 X31.659 Y50.647 E8.76749
G1 X31.881 Y49.585 E8.81504
G1 X32.03 Y49.07 E8.83854
G1 X32.151 Y48.783 E8.85219
G1 X32.545 Y47.95 E8.89258
G1 X32.809 Y47.483 E8.91609
G1 X32.971 Y47.262 E8.9281
G1 X33.397 Y46.721 E8.95828
G1 X33.944 Y46.163 E8.99253
G1 X34.557 Y45.661 E9.02725
G0 X34.811 Y45.97
G1 X35.159 Y45.722 E9.04598
G1 X37.874 Y44.049 E9.18575
G1 X43.266 Y40.351 E9.47231
G1 X43.704 Y40.099 E9.49445
G1 X44.177 Y39.919 E9.51663
G1 X44.672 Y39.816 E9.53879
G1 X45.07 Y39.79 E9.55627
G1 X50.218 Y39.78 E9.7819
G1 X50.452 Y39.788 E9.79216
G1 X55.133 Y40.122 E9.99784
G1 X60.647 Y40.323 E10.23967
G1 X66.102 Y40.212 E10.47879
G1 X71.691 Y39.784 E10.72447
G1 X71.931 Y39.775 E10.73499
G1 X77.793 Y39.767 E10.99191
G1 X78.297 Y39.806 E11.01406
G1 X78.788 Y39.924 E11.0362
G1 X79.255 Y40.118 E11.05836
G1 X79.651 Y40.359 E11.07868
G1 X82.323 Y42.258 E11.22235
G1 X87.801 Y45.764 E11.5074
G1 X88.157 Y46.028 E11.52682
G1 X88.864 Y46.633 E11.5676
G1 X89.221 Y46.991 E11.58976
G1 X89.434 Y47.272 E11.60522
G1 X89.899 Y47.96 E11.64161
G1 X90.148 Y48.4 E11.66377
G1 X90.282 Y48.735 E11.67958
G1 X90.692 Y49.958 E11.73612
G1 X90.814 Y50.448 E11.75825
G1 X90.849 Y50.741 E11.77118
G1 X90.954 Y52.17 E11.83398
G1 X90.963 Y52.406 E11.84433
G1 X90.948 Y83.057 E13.18769
G1 X90.909 Y83.553 E13.2095
G1 X90.676 Y85.031 E13.27507
G1 X90.558 Y85.523 E13.29725
G1 X90.417 Y85.882 E13.31415
G1 X89.982 Y86.818 E13.35939
G1 X89.586 Y87.458 E13.39238
G1 X89.182 Y87.967 E13.42086
G1 X88.748 Y88.416 E13.44823
G1 X88.268 Y88.824 E13.47584
G1 X87.914 Y89.086 E13.49514
G1 X82.95 Y92.244 E13.75299
G1 X79.645 Y94.576 E13.93027
G1 X79.21 Y94.834 E13.95244
G1 X78.74 Y95.02 E13.97459
G1 X78.247 Y95.13 E13.99673
G1 X77.801 Y95.161 E14.01632
G1 X72.689 Y95.163 E14.24037
G1 X72.479 Y95.156 E14.24958
G1 X65.149 Y94.677 E14.57152
G1 X59.671 Y94.619 E14.81162
G1 X54.174 Y94.872 E15.0528
G1 X51.225 Y95.132 E15.18255
G1 X50.939 Y95.144 E15.19509
G1 X45.061 Y95.135 E15.45271
G1 X44.557 Y95.094 E15.47488
G1 X44.066 Y94.975 E15.49702
G1 X43.6 Y94.779 E15.51917
G1 X43.203 Y94.537 E15.53955
G1 X41.099 Y93.03 E15.65298
G1 X35.21 Y89.239 E15.95994
G1 X34.901 Y89.013 E15.97671
G1 X34.064 Y88.32 E16.02434
G1 X33.702 Y87.968 E16.04647
G1 X33.512 Y87.731 E16.05978
G1 X33.156 Y87.239 E16.0864
G1 X32.893 Y86.807 E16.10856
G1 X32.785 Y86.569 E16.12002
G1 X32.347 Y85.493 E16.17093
G1 X32.148 Y84.77 E16.2038
G1 X32.002 Y83.813 E16.24623
G1 X31.965 Y83.328 E16.26755
G1 X31.983 Y51.382 E17.66767
G1 X32.051 Y50.729 E17.69644
G1 X32.273 Y49.667 E17.74399
G1 X32.512 Y48.954 E17.77695
G1 X32.906 Y48.121 E17.81734
G1 X33.285 Y47.509 E17.84889
G1 X33.711 Y46.968 E17.87906
G1 X34.198 Y46.472 E17.90953
G1 X34.811 Y45.97 E17.94426
G1 F1500 E11.44426
G0 F1800 X36.313 Y47.994
G0 X37.091 Y49.04
G0 X37.825 Y48.819
G0 X37.831 Y48.72
;TYPE:WALL-INNER
G1 F1500 E17.94426
G1 F1800 X38.143 Y48.713 E17.95793
G1 X38.41 Y48.669 E17.96979
G1 X38.631 Y48.601 E17.97993
G1 X38.849 Y48.503 E17.9904
G1 X39.096 Y48.348 E18.00318
G1 X39.289 Y48.182 E18.01434
G1 X39.43 Y48.022 E18.02369
G1 X40.139 Y47.652 E18.05874
G1 X40.389 Y47.501 E18.07154
G1 X40.753 Y47.296 E18.08985
G1 X40.944 Y47.169 E18.0999
G1 X41.256 Y46.977 E18.11596
G1 X41.924 Y46.535 E18.15106
G1 X42.388 Y46.211 E18.17586
G1 X43.34 Y45.486 E18.22831
G1 X43.792 Y45.107 E18.25416
G1 X44.157 Y44.782 E18.27558
G1 X44.75 Y44.215 E18.31154
G1 X45.095 Y43.857 E18.33333
G1 X45.342 Y43.581 E18.34956
G1 X47.375 Y43.597 E18.43867
G1 X50.154 Y43.579 E18.56047
G1 X50.155 Y43.578 E18.56053
G1 X50.355 Y43.578 E18.5693
G1 X50.355 Y43.778 E18.57497
G1 X50.355 Y43.779 E18.57502
G1 X50.355 Y45.124 E18.63396
G1 X50.374 Y45.519 E18.6513
G1 X50.427 Y45.903 E18.66828
G1 X50.537 Y46.348 E18.68838
G1 X50.678 Y46.727 E18.7061
G1 X50.854 Y47.091 E18.72382
G1 X51.066 Y47.423 E18.74108
G1 X51.31 Y47.733 E18.75837
G1 X51.593 Y48.008 E18.77567
G1 X51.907 Y48.236 E18.79267
G1 X52.251 Y48.41 E18.80957
G1 X52.614 Y48.522 E18.82622
G1 X52.932 Y48.559 E18.84025
G1 X69.953 Y48.559 E19.58624
G1 X70.278 Y48.523 E19.60057
G1 X70.644 Y48.409 E19.61737
G1 X70.984 Y48.237 E19.63407
G1 X71.3 Y48.01 E19.65113
G1 X71.581 Y47.736 E19.66833
G1 X71.827 Y47.424 E19.68574
G1 X72.039 Y47.092 E19.70301
G1 X72.215 Y46.728 E19.72073
G1 X72.355 Y46.351 E19.73835
G1 X72.457 Y45.96 E19.75606
G1 X72.517 Y45.54 E19.77466
G1 X72.538 Y45.182 E19.79037
G1 X72.538 Y43.769 E19.8523
G1 X72.538 Y43.768 E19.85235
G1 X72.538 Y43.568 E19.86111
G1 X72.738 Y43.568 E19.86679
G1 X72.739 Y43.569 E19.86685
G1 X74.522 Y43.578 E19.94499
G1 X77.534 Y43.559 E20.07701
G1 X77.847 Y43.908 E20.09755
G1 X78.195 Y44.268 E20.1195
G1 X78.581 Y44.639 E20.14296
G1 X79.094 Y45.1 E20.17319
G1 X79.545 Y45.477 E20.19895
G1 X80.01 Y45.842 E20.22486
G1 X80.507 Y46.21 E20.25196
G1 X81.572 Y46.938 E20.3085
G1 X82.072 Y47.249 E20.33431
G1 X82.775 Y47.664 E20.37009
G1 X83.472 Y48.028 E20.40455
G1 X83.507 Y48.074 E20.40709
G1 X83.68 Y48.247 E20.41781
G1 X83.919 Y48.428 E20.43095
G1 X84.244 Y48.593 E20.44692
G1 X84.443 Y48.657 E20.45608
G1 X84.623 Y48.695 E20.46415
G1 X84.811 Y48.717 E20.47244
G1 X85.054 Y48.719 E20.48309
G1 X85.212 Y48.707 E20.49004
G1 X85.382 Y48.765 E20.49791
G1 X85.761 Y48.96 E20.51659
G1 X86.065 Y49.181 E20.53306
G1 X86.34 Y49.455 E20.55008
G1 X86.579 Y49.77 E20.56741
G1 X86.778 Y50.127 E20.58532
G1 X86.938 Y50.525 E20.60412
G1 X87.049 Y50.932 E20.62261
G1 X87.117 Y51.346 E20.641
G1 X87.158 Y51.82 E20.66185
G1 X87.167 Y52.283 E20.68215
G1 X87.162 Y82.743 E22.01714
G1 X87.155 Y83.114 E22.0334
G1 X87.125 Y83.502 E22.05046
G1 X87.044 Y84.016 E22.07326
G1 X86.943 Y84.383 E22.08994
G1 X86.793 Y84.771 E22.10818
G1 X86.558 Y85.193 E22.12935
G1 X86.344 Y85.468 E22.14462
G1 X86.064 Y85.748 E22.16197
G1 X85.755 Y85.975 E22.17878
G1 X85.428 Y86.149 E22.19501
G1 X85.131 Y86.254 E22.20882
G1 X84.935 Y86.24 E22.21743
G1 X84.66 Y86.263 E22.22952
G1 X84.353 Y86.334 E22.24333
G1 X84.067 Y86.452 E22.25689
G1 X83.942 Y86.525 E22.26324
G1 X83.686 Y86.712 E22.27713
G1 X83.535 Y86.869 E22.28668
G1 X82.857 Y87.225 E22.32024
G1 X82.07 Y87.682 E22.36013
G1 X81.842 Y87.831 E22.37207
G1 X81.56 Y88.001 E22.3865
G1 X81.228 Y88.23 E22.40417
G1 X80.916 Y88.434 E22.42051
G1 X80.009 Y89.089 E22.46954
G1 X79.626 Y89.394 E22.491
G1 X79.024 Y89.894 E22.5253
G1 X78.663 Y90.213 E22.54641
G1 X78.246 Y90.61 E22.57165
G1 X77.858 Y91.008 E22.59601
G1 X77.535 Y91.37 E22.61727
G1 X75.686 Y91.352 E22.69831
G1 X72.738 Y91.364 E22.82752
G1 X72.538 Y91.364 E22.83628
G1 X72.538 Y91.164 E22.84196
G1 X72.538 Y89.808 E22.90139
G1 X72.519 Y89.412 E22.91877
G1 X72.466 Y89.028 E22.93576
G1 X72.356 Y88.583 E22.95585
G1 X72.215 Y88.205 E22.97353
G1 X72.039 Y87.84 E22.99129
G1 X71.827 Y87.508 E23.00855
G1 X71.583 Y87.198 E23.02584
G1 X71.3 Y86.923 E23.04314
G1 X70.985 Y86.694 E23.06021
G1 X70.644 Y86.522 E23.07694
G1 X70.282 Y86.409 E23.09356
G1 X69.92 Y86.371 E23.10952
G1 X52.977 Y86.372 E23.85209
G1 X52.651 Y86.403 E23.86644
G1 X52.233 Y86.532 E23.88561
G1 X51.909 Y86.692 E23.90145
G1 X51.593 Y86.922 E23.91858
G1 X51.312 Y87.196 E23.93578
G1 X51.067 Y87.507 E23.95313
G1 X50.854 Y87.839 E23.97042
G1 X50.678 Y88.204 E23.98818
G1 X50.538 Y88.58 E24.00577
G1 X50.437 Y88.972 E24.02351
G1 X50.376 Y89.376 E24.04142
G1 X50.355 Y89.75 E24.05783
G1 X50.355 Y91.148 E24.1191
G1 X50.355 Y91.149 E24.11915
G1 X50.355 Y91.349 E24.12791
G1 X50.155 Y91.349 E24.13359
G1 X50.154 Y91.348 E24.13365
G1 X48.383 Y91.336 E24.21127
G1 X45.34 Y91.35 E24.34464
G1 X45.053 Y91.028 E24.36355
G1 X44.639 Y90.605 E24.38949
G1 X44.224 Y90.209 E24.41463
G1 X43.881 Y89.903 E24.43477
G1 X43.342 Y89.451 E24.4656
G1 X42.884 Y89.09 E24.49116
G1 X42.384 Y88.72 E24.51842
G1 X41.799 Y88.312 E24.54968
G1 X41.332 Y88 E24.5743
G1 X40.747 Y87.635 E24.60452
G1 X40.057 Y87.235 E24.63947
G1 X39.37 Y86.877 E24.67342
G1 X39.264 Y86.759 E24.68038
G1 X39.096 Y86.619 E24.68996
G1 X38.815 Y86.445 E24.70445
G1 X38.63 Y86.363 E24.71332
G1 X38.417 Y86.298 E24.72308
G1 X38.258 Y86.266 E24.73018
G1 X38.065 Y86.247 E24.73868
G1 X37.766 Y86.253 E24.75179
G1 X37.47 Y86.148 E24.76556
G1 X37.138 Y85.974 E24.78198
G1 X36.831 Y85.747 E24.79872
G1 X36.557 Y85.476 E24.81561
G1 X36.316 Y85.158 E24.8331
G1 X36.123 Y84.815 E24.85034
G1 X35.96 Y84.412 E24.8694
G1 X35.845 Y83.993 E24.88844
G1 X35.776 Y83.566 E24.9074
G1 X35.74 Y83.075 E24.92897
G1 X35.73 Y82.647 E24.94774
G1 X35.733 Y52.15 E26.28435
G1 X35.741 Y51.815 E26.29904
G1 X35.774 Y51.403 E26.31715
G1 X35.857 Y50.895 E26.33971
G1 X35.961 Y50.524 E26.3566
G1 X36.12 Y50.128 E26.3753
G1 X36.321 Y49.765 E26.39349
G1 X36.557 Y49.458 E26.41046
G1 X36.831 Y49.184 E26.42744
G1 X37.142 Y48.953 E26.44442
G1 X37.466 Y48.783 E26.46046
G1 X37.694 Y48.7 E26.47109
G1 X37.831 Y48.72 E26.47716
G0 X37.856 Y48.319
;TYPE:WALL-OUTER
G1 X38.106 Y48.314 E26.48812
G1 X38.318 Y48.279 E26.49753
G1 X38.489 Y48.226 E26.50538
G1 X38.66 Y48.149 E26.5136
G1 X38.858 Y48.025 E26.52384
G1 X39.01 Y47.894 E26.53263
G1 X39.098 Y47.798 E26.53834
G1 X39.167 Y47.708 E26.54331
G1 X39.943 Y47.303 E26.58168
G1 X40.193 Y47.152 E26.59448
G1 X40.544 Y46.955 E26.61212
G1 X40.735 Y46.828 E26.62217
G1 X41.041 Y46.64 E26.63791
G1 X41.699 Y46.204 E26.6725
G1 X42.152 Y45.888 E26.69671
G1 X43.09 Y45.173 E26.7484
G1 X43.531 Y44.804 E26.77361
G1 X43.886 Y44.488 E26.79444
G1 X44.468 Y43.931 E26.82974
G1 X44.802 Y43.585 E26.85082
G1 X45.164 Y43.18 E26.87463
G1 X47.375 Y43.197 E26.97153
G1 X50.554 Y43.177 E27.11086
G1 X50.555 Y43.176 E27.11093
G1 X50.755 Y43.176 E27.11969
G1 X50.755 Y43.376 E27.12537
G1 X50.755 Y43.377 E27.12541
G1 X50.755 Y45.114 E27.20154
G1 X50.773 Y45.482 E27.21769
G1 X50.82 Y45.828 E27.23299
G1 X50.92 Y46.23 E27.25115
G1 X51.046 Y46.57 E27.26704
G1 X51.204 Y46.895 E27.28288
G1 X51.393 Y47.191 E27.29827
G1 X51.608 Y47.465 E27.31353
G1 X51.851 Y47.701 E27.32838
G1 X52.116 Y47.894 E27.34275
G1 X52.401 Y48.038 E27.35674
G1 X52.697 Y48.129 E27.37031
G1 X52.955 Y48.159 E27.3817
G1 X69.931 Y48.159 E28.12572
G1 X70.196 Y48.13 E28.1374
G1 X70.493 Y48.037 E28.15104
G1 X70.776 Y47.894 E28.16494
G1 X71.042 Y47.703 E28.17929
G1 X71.283 Y47.468 E28.19404
G1 X71.5 Y47.192 E28.20943
G1 X71.689 Y46.896 E28.22482
G1 X71.847 Y46.571 E28.24066
G1 X71.973 Y46.231 E28.25655
G1 X72.064 Y45.881 E28.2724
G1 X72.119 Y45.5 E28.28927
G1 X72.138 Y45.17 E28.30376
G1 X72.138 Y43.367 E28.38278
G1 X72.138 Y43.366 E28.38282
G1 X72.138 Y43.166 E28.39159
G1 X72.338 Y43.166 E28.39727
G1 X72.339 Y43.167 E28.39733
G1 X74.522 Y43.178 E28.493
G1 X77.712 Y43.158 E28.63282
G1 X78.14 Y43.636 E28.66094
G1 X78.477 Y43.985 E28.6822
G1 X78.853 Y44.346 E28.70505
G1 X79.356 Y44.798 E28.73468
G1 X79.797 Y45.166 E28.75986
G1 X80.253 Y45.524 E28.78527
G1 X80.739 Y45.884 E28.81177
G1 X81.791 Y46.603 E28.86762
G1 X82.279 Y46.907 E28.89282
G1 X82.969 Y47.314 E28.92793
G1 X83.737 Y47.716 E28.96592
G1 X83.809 Y47.81 E28.97111
G1 X83.944 Y47.945 E28.97948
G1 X84.132 Y48.088 E28.98983
G1 X84.396 Y48.222 E29.00281
G1 X84.546 Y48.27 E29.00971
G1 X84.687 Y48.3 E29.01603
G1 X84.836 Y48.317 E29.0226
G1 X85.04 Y48.319 E29.03154
G1 X85.263 Y48.301 E29.04135
G1 X85.541 Y48.397 E29.05424
G1 X85.97 Y48.617 E29.07537
G1 X86.326 Y48.877 E29.09469
G1 X86.643 Y49.192 E29.11427
G1 X86.912 Y49.547 E29.13379
G1 X87.141 Y49.957 E29.15438
G1 X87.318 Y50.396 E29.17512
G1 X87.441 Y50.85 E29.19574
G1 X87.515 Y51.298 E29.21564
G1 X87.557 Y51.786 E29.2371
G1 X87.567 Y52.283 E29.25889
G1 X87.562 Y82.75 E30.59419
G1 X87.555 Y83.136 E30.61111
G1 X87.523 Y83.546 E30.62913
G1 X87.434 Y84.108 E30.65407
G1 X87.324 Y84.508 E30.67225
G1 X87.157 Y84.939 E30.69251
G1 X86.892 Y85.414 E30.71635
G1 X86.643 Y85.736 E30.73419
G1 X86.324 Y86.053 E30.7539
G1 X85.972 Y86.313 E30.77308
G1 X85.59 Y86.516 E30.79204
G1 X85.174 Y86.663 E30.81138
G1 X85.133 Y86.655 E30.81321
G1 X84.937 Y86.641 E30.82182
G1 X84.722 Y86.659 E30.83128
G1 X84.475 Y86.716 E30.84239
G1 X84.245 Y86.811 E30.85329
G1 X84.161 Y86.86 E30.85755
G1 X83.95 Y87.014 E30.869
G1 X83.773 Y87.199 E30.88022
G1 X83.651 Y87.257 E30.88614
G1 X83.051 Y87.575 E30.91591
G1 X82.28 Y88.023 E30.95499
G1 X82.049 Y88.173 E30.96706
G1 X81.777 Y88.337 E30.98098
G1 X81.454 Y88.559 E30.99816
G1 X81.143 Y88.763 E31.01446
G1 X80.251 Y89.408 E31.0627
G1 X79.878 Y89.704 E31.08357
G1 X79.284 Y90.198 E31.11743
G1 X78.933 Y90.508 E31.13796
G1 X78.527 Y90.895 E31.16254
G1 X78.15 Y91.281 E31.18619
G1 X77.712 Y91.772 E31.21502
G1 X75.685 Y91.752 E31.30387
G1 X72.338 Y91.765 E31.45056
G1 X72.138 Y91.765 E31.45933
G1 X72.138 Y91.565 E31.465
G1 X72.138 Y89.818 E31.54157
G1 X72.12 Y89.449 E31.55776
G1 X72.073 Y89.103 E31.57306
G1 X71.973 Y88.701 E31.59122
G1 X71.847 Y88.362 E31.60707
G1 X71.689 Y88.036 E31.62295
G1 X71.5 Y87.74 E31.63834
G1 X71.285 Y87.466 E31.6536
G1 X71.042 Y87.23 E31.66845
G1 X70.776 Y87.037 E31.68285
G1 X70.493 Y86.894 E31.69675
G1 X70.201 Y86.803 E31.71015
G1 X69.899 Y86.771 E31.72346
G1 X52.996 Y86.772 E32.46428
G1 X52.73 Y86.797 E32.47599
G1 X52.382 Y86.905 E32.49196
G1 X52.117 Y87.036 E32.50492
G1 X51.851 Y87.229 E32.51932
